packages/core/src/svgs/networks/branded/filecoin.svg

<svg width="24" height="24" viewBox="0 0 24 24" fill="none" xmlns="http://www.w3.org/2000/svg">
<path d="M13.3462 10.2854L12.8854 12.6289L17.2706 13.2152L16.9629 14.3133L12.655 13.727C12.3473 14.6808 12.1927 15.706 11.8091 16.5854C11.4241 17.6106 11.0391 18.6358 10.5769 19.5895C9.96145 20.8349 8.8852 21.7143 7.42395 21.933C6.57812 22.0803 5.655 22.006 4.96229 21.4941C4.73188 21.3483 4.5 21.0551 4.5 20.8349C4.5 20.5418 4.49417 20.1976 4.885 20.0285C5.27584 19.8593 5.43625 19.9789 5.655 20.1014C5.88542 20.3216 6.11583 20.6147 6.27042 20.9078C6.73125 21.4941 7.34666 21.567 7.96208 21.1266C8.65478 20.5418 9.03978 19.7353 9.2702 18.9303C9.73103 17.1716 10.1933 15.4858 10.5769 13.7285V13.4339L6.50083 12.8477L6.65396 11.7495L10.886 12.3358L11.4227 10.0652L7.03895 9.40455L7.19354 8.23351L11.7319 8.81976C11.885 8.37934 11.9623 8.0133 12.1169 7.64726C12.5004 6.32747 12.8854 5.00914 13.8085 3.83665C14.7316 2.66415 15.8079 1.93207 17.4237 2.00499C18.1164 2.00499 18.8091 2.2252 19.27 2.73853C19.3472 2.81144 19.5004 2.95728 19.5004 3.10311C19.5004 3.39769 19.5004 3.76373 19.27 3.98394C18.9622 4.20269 18.5772 4.12977 18.2695 3.83811C18.0391 3.6179 17.8845 3.39769 17.6541 3.17748C17.1933 2.59124 16.5006 2.51832 15.9625 3.03165C15.546 3.42967 15.2068 3.90137 14.9621 4.4229C14.4225 5.96143 14.0389 7.57289 13.5008 9.1858L17.7314 9.77205L17.4237 10.8702L13.3462 10.2854Z" fill="#0090FF"/>
</svg>

<svg xmlns="http://www.w3.org/2000/svg" width="24" height="24" fill="none" viewBox="0 0 24 24">
    <path fill="#0090FF" d="m13.346 10.285-.46 2.344 4.385.586-.308 1.098-4.308-.586c-.308.954-.462 1.979-.846 2.858-.385 1.026-.77 2.05-1.232 3.005-.616 1.245-1.692 2.124-3.153 2.343-.846.147-1.769.073-2.462-.439-.23-.146-.462-.439-.462-.66 0-.292-.006-.636.385-.805.39-.17.551-.05.77.072.23.22.46.514.615.807.461.586 1.077.659 1.692.219.693-.585 1.078-1.392 1.308-2.197.461-1.758.923-3.444 1.307-5.201v-.295L6.5 12.848l.153-1.099 4.232.587.537-2.27-4.384-.661.155-1.171 4.538.586c.153-.44.23-.807.385-1.173.383-1.32.768-2.638 1.691-3.81.924-1.173 2-1.905 3.616-1.832.692 0 1.385.22 1.846.734.077.072.23.218.23.364 0 .295 0 .66-.23.88-.308.22-.693.147-1-.145-.23-.22-.386-.44-.616-.66-.46-.587-1.153-.66-1.691-.146-.417.398-.756.87-1 1.39-.54 1.54-.924 3.15-1.462 4.764l4.23.586-.307 1.098z"/>
</svg>
